raw-svg/bookmark.svg

<svg viewBox="0 0 24 24" xmlns="http://www.w3.org/2000/svg"><path d="m17.75 20.75a.83.83 0 0 1 -.43-.13l-5.32-3.71-5.32 3.71a.75.75 0 0 1 -.78 0 .74.74 0 0 1 -.4-.62v-14a2.75 2.75 0 0 1 2.75-2.75h7.5a2.75 2.75 0 0 1 2.75 2.75v14a.74.74 0 0 1 -.4.66.73.73 0 0 1 -.35.09zm-5.75-5.5a.75.75 0 0 1 .43.13l4.57 3.18v-12.56a1.25 1.25 0 0 0 -1.25-1.25h-7.5a1.25 1.25 0 0 0 -1.25 1.25v12.56l4.57-3.18a.75.75 0 0 1 .43-.13z"/></svg>

<svg xmlns="http://www.w3.org/2000/svg" viewBox="0 0 24 24"><g id="bookmark"><path d="M17.75,20.75a.83.83,0,0,1-.43-.13L12,16.91,6.68,20.62a.75.75,0,0,1-.78,0A.74.74,0,0,1,5.5,20V6A2.75,2.75,0,0,1,8.25,3.25h7.5A2.75,2.75,0,0,1,18.5,6V20a.74.74,0,0,1-.4.66A.73.73,0,0,1,17.75,20.75ZM12,15.25a.75.75,0,0,1,.43.13L17,18.56V6a1.25,1.25,0,0,0-1.25-1.25H8.25A1.25,1.25,0,0,0,7,6V18.56l4.57-3.18A.75.75,0,0,1,12,15.25Z"/></g></svg>
